X:51
T:Hit and Miss
T:Hit or Miss
M:6/4
L:1/4
K:G
%
|: c2 d e c A | G3/2 A/B/c/ d B G | e2 f g e c | dBGcGF :|
|: c2 c d>ef/g/ | e3-e2 c | d2 d e3/2 f/g/a/ | [1 ^f6 :| [2 ^f3-f2 d ||
|: e d2 B2 G | g f2 e2 c | e2 d g2 e | a g > f e > d c :|
%
%
